X: 65
T:Highland Ladde. JB.64
T:Highland Laddies Hornpipe,aka JB.64
M:4/4
L:1/8
Q:180
S:James Biggins MS, Leeds, 1779.
R:Reel
O:England
A:Yorkshire
N:More like a hornpipe in Vickers.
Z:vmp.Nick Barber & Chris Partington
K:A
f|eAcAe2c2|fBBc fBBc|ecace2c2|eAAc eAA:|!
|:a|fe f/g/af2ed|fBBc bBBc|ef/g/ a>fe2c2|eAAc eAA:|]
